tools/download-figma-icons/icons/outlined-medium/phone.svg

<svg width="24" height="24" viewBox="0 0 24 24" fill="none" xmlns="http://www.w3.org/2000/svg">
<path fill-rule="evenodd" clip-rule="evenodd" d="M17.4997 24C15.4678 24 13.229 23.2594 10.8573 21.7854C7.31182 19.5813 4.30569 16.2375 2.81005 14.0439C1.83896 12.621 -1.19452 7.6701 0.510073 3.72107C0.852056 2.92836 2.85229 0.22324 4.77973 0.0128416C5.53125 -0.0684083 6.20257 0.237839 6.66806 0.87638L6.79684 1.05242C8.95433 3.99186 9.75433 5.58251 9.56032 6.5409C9.38932 7.38047 8.5164 8.04505 7.74588 8.6315C7.49889 8.81899 7.26669 8.99608 7.12101 9.13461C6.91202 9.33357 6.82864 9.5617 6.8508 9.87314C6.97957 11.6679 10.3171 14.62 11.8203 15.6917C11.9913 15.8136 12.1655 15.9438 12.3428 16.0772C13.8438 17.2053 14.4465 17.4615 15.066 16.7511C15.1568 16.648 15.2739 16.498 15.3985 16.3407C16.0635 15.4969 16.891 14.4459 17.8769 14.4417H17.8864C18.9979 14.4417 20.4228 15.4167 21.6788 16.2771C22.0968 16.5625 22.4916 16.8334 22.7681 16.9875C24.2944 17.8396 24.0675 18.7688 23.8258 19.7521C23.7994 19.8593 23.7719 19.9729 23.7434 20.0937C23.659 20.4645 23.2864 20.6968 22.9117 20.6124C22.537 20.5291 22.3016 20.1614 22.386 19.7916C22.4156 19.6635 22.4452 19.5427 22.4726 19.4291C22.5592 19.076 22.6341 18.7697 22.5982 18.6219C22.5623 18.476 22.2984 18.3031 22.0831 18.1823C21.7506 17.9969 21.3495 17.7229 20.8851 17.4052C19.9594 16.7719 18.5619 15.8156 17.8863 15.8156H17.882C17.5548 15.8396 16.7579 16.8521 16.4951 17.1844C16.36 17.3562 16.2323 17.5187 16.1193 17.6479C14.5403 19.4573 12.709 18.0802 11.4973 17.1698C11.3305 17.0437 11.1648 16.9198 11.0044 16.8042C10.9516 16.7656 5.67388 12.925 5.46176 9.96876C5.4111 9.25418 5.64964 8.62398 6.15418 8.14377C6.35473 7.95314 6.61755 7.75316 6.89517 7.54169C7.35537 7.1917 8.12591 6.60421 8.19452 6.2688C8.22935 6.08859 8.15124 5.23963 5.66864 1.85524L5.53775 1.67607C5.31926 1.37712 5.11765 1.35421 4.93293 1.37504C3.76763 1.50316 2.06812 3.61355 1.79061 4.25741C0.361423 7.56778 3.09313 11.996 3.965 13.2739C6.84332 17.4946 15.104 25.4529 20.9031 21.6092C21.2219 21.3988 21.6536 21.4811 21.8678 21.7967C22.0832 22.1113 21.9977 22.5384 21.6789 22.7499C20.4239 23.5853 19.0201 23.9998 17.5 23.9998L17.4997 24Z" fill="black"/>
</svg>

<svg width="24" height="24" viewBox="0 0 24 24" fill="none" xmlns="http://www.w3.org/2000/svg"><path fill-rule="evenodd" clip-rule="evenodd" d="M17.5 24c-2.032 0-4.271-.74-6.643-2.215-3.545-2.204-6.551-5.547-8.047-7.741C1.84 12.62-1.195 7.67.51 3.72.852 2.928 2.852.223 4.78.013c.751-.081 1.423.225 1.888.863l.129.176c2.157 2.94 2.957 4.53 2.763 5.489-.17.84-1.044 1.504-1.814 2.09-.247.188-.48.365-.625.504-.209.199-.292.427-.27.738.129 1.795 3.466 4.747 4.97 5.819.17.122.345.252.522.385 1.5 1.128 2.104 1.384 2.723.674.09-.103.208-.253.332-.41.666-.844 1.493-1.895 2.479-1.9h.01c1.11 0 2.536.976 3.792 1.836.418.285.813.556 1.09.71 1.525.853 1.299 1.782 1.057 2.765-.027.107-.054.22-.083.342a.694.694 0 0 1-.831.518.687.687 0 0 1-.526-.82l.087-.363c.086-.353.161-.66.125-.807-.036-.146-.3-.319-.515-.44-.332-.185-.733-.46-1.198-.777-.926-.633-2.323-1.59-2.999-1.59h-.004c-.327.025-1.124 1.037-1.387 1.37-.135.171-.263.334-.376.463-1.579 1.81-3.41.432-4.622-.478-.166-.126-.332-.25-.493-.366-.052-.038-5.33-3.879-5.542-6.835-.05-.715.188-1.345.692-1.825.2-.19.464-.39.741-.602.46-.35 1.23-.938 1.3-1.273.034-.18-.044-1.03-2.526-4.414l-.131-.179c-.219-.299-.42-.322-.605-.301-1.165.128-2.865 2.239-3.142 2.882-1.43 3.31 1.302 7.739 2.174 9.017 2.878 4.22 11.139 12.179 16.938 8.335a.7.7 0 0 1 .965.188.68.68 0 0 1-.19.953A7.401 7.401 0 0 1 17.5 24Z" fill="currentColor"/></svg>
